-----BEGIN PGP MESSAGE-----

hF4D2lMrnThqI98SAQdA/OQatE0YlbVoLnOm3237D3Tf/Nb6ZsO04dUusjrbLR8w
wytLYq8OIULOwbBfgSstL3HOG9UdTfZfZmO1JU1k2NK9Fp4s4KkBYx+z3dqMX8kh
0usBh7TI8tKjRYNGbLHq9Q8viuH/+j7b8BEcZdXlqbXJorggoFdyD7fPxaSUpo8i
EKipf7hUkh9mP/bKB2q9GWnTBzgN4APtPDhbeTwdt5JAC5TQf+f10aztqlSa2mjN
Yl4W5MTaTQHgGlFGFHjiIwgxmWs3KDx6PBvXVdu8MLR6bIW13R/Ufla0mL208Q6c
+pnKXe+pOSZgEc9XhmjfXcOUAw3vkYoAXwaao/mTMwFtS+A7RH4/uFOwvse1JsuV
vmaSkGsFfHDkMO59j+p2zAe7BmaofP8unobc8oDXjp5Wnk9ju/1RUR0ZpfvQkLRT
sFuAtGEitGCXlunwAD5YEui7L8ZwKFlfCd4KtGE/dNQq9B9U+enoBt+nNAkhKpTw
oygwTe1VgAFc5V/X3bicXlbZ9QokNIktGKnBLyUf1HxrAkdlGUIxo48cxLpSQNKI
dvd6cDOLP8orNgE+Wu0HKXPMh2WgRxEjzZjSvIFweao/t9ldjSK0BLriAwdSViX3
jLGY4Fmuw5j5KabIYNrx/gWziywv31vfgH82Z9CgGQrsFmH9g+qJSmFc0FQS446d
nHGZ9x6VN8+6pxL2z2PfRLgr9zPBT6VjRr8nuFIyKz0jiiox49OJc+YIfYSPXNpj
AiyBpdrs5k1Mu3xg4GGXMjisIb2rmssRBHKxPm2A5+UwKpMiF56yvwCGeZ5Q8rpr
1Cets/xcpwyERp6TnafyHx1V6lokx5jGp2DINBDCkdjZsxTi/SsVQtCaVPwCOcgh
lRABZ4kZM7faEAWBpvYCHRtmSblzoTQ4MeWQdqIUo/e8FTR9H8mRAjcTRg1Qg0iR
TkqytuuPQvISvAOpFKri+LSMbzUsI848xeAKSOcdX+D1Ij0DUbMAOuo++ZKU4LkL
DyJ4b7fwxk4xV+FMELjlsSlop8yt/oK/AIdGOJi4F3MtrjvZm/BrIW28sncMXWGd
N9GNTLJAFhgJrEeVRBVRJotURSTp7akNuPbgON9FP14DKLnukx3F0QQPDliZDVYx
1U5+IKwWzVIqi1mDRsluiz4yxhtKRCkHYwHftl3oeqq88F696qHt6ONBmkd7N99b
MsQ6nwU7dF5bM6f9jl2B6A/+gRYmeoEooMMej32Icq5JMBoRdvDkBPUI3s4EExhv
pBKCk1/3PMatBHBdNV6S5zr9L7KDl4+QKCOeoJPVz/CTPBIK0Vplt0ks4b7ztc4o
jtrjbZQ2ZfCFy9vgAdGnhC4VDsfs2Rol81U77asb8Hzn+YDOXf+i73IiBpKUapMs
KS9J8gXwtrCTGDzKmXUTKmkUA/qeaSz+8UAU7xpESg/Wf0/1OgPTCyBm+Zy9FGR4
Xi6EfyZTbUpoRnLXgvBKicGf+6quwfFsZrKXxvaX+WTzbfXPD/LRpoE8HsAq1KTy
jHtBKVDwe3j0IZp4eNIZAJCd0FYV4J4wbwRGjOFP+du9G9X06uVEfBMcxtcDWURb
wHrzakYS85X32eEuAV7HNME6qclBP6pqJqpgqgOveABncOH7iCr0KiBnr4q/rdKp
SZhQxB9J2yzmMnEnGl4N3+XngPl97La214mPPFXomo4QG6Tiq98byd9TF1sVAIsF
y3YPkW0GlROe9egjabwXLxg+Dqa1PY2IUmPmOtfBhsdh4FkuOoYnjskaYnodZfGS
GAKUTDx/0mbuNkKLLelfGOZNbyzRBTVYxIGwugux4dL22no7VHhUGVddBC2/LaxW
nRgMUmf4ifIAxVFYU+mzufScb6qKTh1VLEiogb7wghTPj5XpsHDW4uNbke5vZdbU
BrDVVlxXsXRG3U8y5Ar4cx0zBHoHASdFDnj/MQon1Mxsx6zePtRflA7eAU9Pv/XP
Z/37oyrNNru5QJeOhwtJss7PlD08Scdk60scI0UexkFs3icXKxauhmgatIo2FVNe
7nXA6AYuhn7kMd+eBaFk2VXSfJJWIQFL+05CNn9DgyJrxFZ7N5KdRN2EHKTuzjCe
kprAOwJa8Ps6MiKCQszev57EWL3apCBnk2MPlM+3jeg502PYAkiXjHIIVyFhxanV
PPT3vEJzpbFP4hvOTk/CW6I318gKYVc+ibR/7C8AtiwiiFuIDoCYAHKB5o4iX+jy
Gm3IAZ3ar6vTDVm43/n/YF5O8IrWeKl95DEcuI1m1dGYdaL4fzaFZDdkE+ALFKYQ
m/+YVykgSV9MPAhfSTA7AGRVNXnEf38TPKuBVnKBP7dJmZuqCEDAJGFWWQCTGpdn
k0Z8/sWfNthMwcFqRDQF8IfQSbzGJVi/PTRaFNuC6L7C/e2/gK5Fnnx78A/no3vJ
g3MGrgmk0b7EpD2rckYHHsXiyAn0CaKLC/BaNA3tlyzHrJtvRMzfCih+GW0vVnra
9d3ZzV49OS5uhP6snnytZ4RyBpOAeaYuWaUid+RH5o6RUgI4t5l84FbpKV3hSTQx
Uhprt4KOchJOg7rl1UWrh84j3L92a0z7KusOgWC5ZzySL1Bvum9l8yLd4EuU8ytc
grHmtp+7WX3XTjhC8Ccod53GMpYOjaNfAuUfenHrNXCMFBaMTjYDOyTFhCqC+BgP
8xNEt9/vO69J1Lxn6+5igHPdocAaONFRiq1Sg6LBaaV71OM1v0O8Mle/3cwgBlbf
QGfn6hFqkqVuLeIlV7czL9hX+dg6LcKbTe8uvAnsa/ktdSFhBmpDCA+jXAbwnRCj
b6UhAQDOPygMX6sVbOy9t+WyFg/1xI+Sa2ykJtyhNvQWSMAYzEvi+iUokz8V7ru8
8S+eciTFwVV+dZuODnN9bmZ2T/u+8K+MLGz9s2V83BsJuhUF6m0/CA7B3+8saXWS
v5ABax4iT2tGN1CmoyRmeRUQZb7XH8pFhZmiaehv3U3tcnfBYY2jFsIUj56CQDPJ
lrO3vRuLmd4bAQIsgrzqwkcJXvIaNBKPvhFVfjoN5oYE1JkcsLW4hCvcCUlczUiZ
1zs2Mj9XqKn64NF0MhEaC2c8I1qq8Zk5izVam2YyQ6q2Sl0ORO1WVXjhD85QGo0d
7lXmi3f7ij6s/mVp
=jo/S
-----END PGP MESSAGE-----
