-----BEGIN PGP MESSAGE-----

hF4D2lMrnThqI98SAQdAjEVAIFzO/vHJbesxewa9ak2kO/xYnwREwHjc9snqpW8w
85/GENTtA8Loeo47rRe7CX8jAG+51HfsjllcLh07kEGm4kAGQmxticsvkg+yoA48
0usB0vykAQCWj3rP8/rHfy0XQSbFiJlhSdQk6IksH+DkNCsyIqYjPGPMFpzfP9ya
wWDBIjXrs2ijgNa4eybCndkK8q8eHfBrLn6GiPgX7sK4xWtVjXpPwzSqZ/GpNhpy
eOEOj5lB7Thqe0x1knrU0lao4a9z3dY8DJuU1vkAbDVf60XfFQ+SYblCrkO9aCgK
zgJcEn8aXbjwVx3SAUrlGbCTpg1uL+GM+ok7mImWSCUxrIZc4I7PLKJ6BV7JcGQx
AbJ7uomSeO5t0E0wP/bDYDg2BxHshOu+GZS0pN95E3uGFuDtJVO4ksnt+1HYX6QF
6rUodcpxfHbYMh9mfHhCbP8HfUEcFw3yIsp8Bo4iKPkA+FPLmt3AAg9rzw0JBy61
mLEnRwKHPd7v0V2Ty4CmR7DlbAl5Qie6k4QRFyAqA8qHjCc4qgeZI4i1l8O8gErr
KpDRD2adnMA4DmJ2kRmlX3xrvlA+Sj8ON9/U0ZIYAya1/8yfCHVjql/7Rx5p3pB8
epGlz1mRVb2BBWBqEnVKt3Vw2P909/J1/+7D05nqGe/MNR3P1CP9FAT07ZDEzpeh
zdbuYBlVywwGN13iBaCNM84Q+/uiJNLkcBhptUEffZZ9fAG7DOsTk9IZn1sRzy0B
BYL2IGJsz+P/rit5Nr0s9zt1ObBK7ReTgVv4zNpSaewN94MhH/HCwO3kll/Eqgeo
vUa8NH3A/4nvSVEwHa50JEyQea3ZKjL9uSWwffZj0bwtGF3XE+if3fUbku8Y8EN7
XpmH64Gao9f/KosfBcj/gJUPDcchq9Ir3aUnFAmHbbdwmSXy1vZ50DRYZPvrxw8q
IAGCaW8QMWqwlb0p91L+A1a8ziOsGU2iszFqMjCRrNK7lIJc/pMm1EOR7eqjyWDD
ughYStCP3MCSOGA+/Mn+9NSd/zfphv2ZC5V34o77OOV/4OmB+/dilhyv/nwd4jfl
D0j2yCC7Lt7f2iSP8pBhJvx1skmXy7gaev6JHTm0ILgOiz3U2AGPMIL+pTaS6Ph4
i8o9BSERivcwMID/VvUhKoi7SPdlYNiOXo2mZMcEdL6BKpu/doGUNMMFtQSPEPEK
pMqP8xBQ2HdFCBbPasONzOrwaqyS4HIFx895uh4haDzJjvOx6zO15t1QXhGNtEZD
ZhxF+t+FIEKHB0Xp11bHq/pTJvPe/21ggNLOxZechcK+IH+NNph5BBP7lmfvqF1P
feKPaomXVdnYn64CBCU6o/9DcA577Oi+2AVgzVQ5iQ+VY3WM8Hv0VyDSnXO+xnsj
fDXyVgzLyNCIX8CC8W51/eXFpEaQ3ckTpsj+N4jrgS5BG6XSUtsZLbsvzAReI0oC
qCsYOYwQpR4I+PVhju4JolBlqBA1BWfBHkobDCnBp+jR/H6AnKFiSMkSRHnx8Tse
77IXkOyH6Z206FJlcR81Z8/vtNU1q63Yp+6PyUeoz7ufuvDiVcbxXO1wSKkcC8Ia
8u0WGIeO6W1RVsDrCmdLBTnrmnZHSrFkXdafTJIEZU5ATtbajV3YSULYx8GKjgJ4
WzDeEjBx3PoxusTICCSjyZo15QlZeD7ncpi+qa6DzPJQurZt0/7iPqwD1f8dqdTL
70oN930Qu5GMywiFYv8hqQp/awtmV/77hjplXuN34WHAYJRqkB+Ps8BVrz6qCgqI
R3B0gid9rTbYHJflnZhrQWHzRVfMIb/0L07FUm3TXEGraxnpxW7NqgIcjHV9QY0t
lMRILzrPDn7e89rJMBMBEQvuxDYc0cwRvahy1gie05VTiiZzVN2NRnHq/qBbvq9i
GPOkML/zFSHWzBA/p+HClNwBSkL8KPJmzTTwwcoD48CjcBA1ExXgOgjk9a42YOWy
D64rJXekEQw0oMebgaBRN3CVQrnBRfIkRw9DHXJ5qP0Q6cgd1KDrRfLGOcwM7Wg8
glliidumG6oC1ijGaFF7LRXg8SV5Zv3rHYfE8EYi7hQrd54Xflv00MMDRCuLI+9x
R3ZSQH/4BajUmSHBv+kiccSBv+LBFgpjiYyjsMoT2/8FmPy/TETBwtaCCswka0RA
7/Hu4SfUmuaLH822HCefI6uFGxE5M7QBQ/7XI1glADncDLyYpmqIf4sOp/edO4Qh
gZPhFt0LRIvQkbWvtsOYCzMcRz8fqbporH0AWnfOI5oUnUF1mXQZsxIBv73t3Aps
RxvBKvG1i6av5z0M+D5YEnO/68hpm7xu6Kc8pxJAJ39mqdcwtR4qwzBrAalDpPrO
Bw7iUBlI9ZSAO1r+5EAp+m5zFLp1p7jcEM+JjGR6RSrEzMxcw2YAmSk9g9xru044
i0KTMmqu1oyfliynt6GWh0YAuazsr7CRfhCJDbsgx++W4mINVnsPKzytr5PnjHyI
QQu2UOVTKzQqtfmIYwXAyBHXttAigbhPo7VXpoFtk/D0rwYR9RqWR18BlGR7qOv4
f1APVkPaT5/Q2u1IW9f1P4hi4E7OX3IY98bPiHUJBGtAmy8Znvg+4ZTXsPFJG3WT
l8FDFhsUkp0QsBJ5noMB/QjD1mGqEyYvefLtPLq+NFUYFTtd4gSK9P3K+cR26hzj
V5z6mCBcqcQcWT1HEhiulZK26V0wR6eW0xOJOmFanoYP7e7ZVLUYnbQsdKXwUEU/
fkRALeO4lMkYiBFptXv9g8RvEyQPgaccManeQQKep+Ej/xqXUkGEcf9BJeLL6AoC
3QfgaDaAv+62bw6xIi4fo/EvuU8asBTtDcTC2+emWF/qFuqOTSVbfZeyY+EfM/lc
OLZmDxli4r9i8erb9wQ7qZ+4I2iRW3LSXNIZZDTH0SrlZ14fd4dSTPBnkwX4YfHg
RvIueGXWXNw5ZvZFMel3SV+hYbyGNOyw0fqTc+DqCyARtpVIlldIdWX7uas51wSx
+8gT5GOK2/G8FjudbDQdjGR0pPaIw4KFX5h3/dUXExqb5aCgICriMpwaV2wEFNaW
I7r8B0WhUbE4Z/0yszo/kt4zwzAw9Gmce2mMJIlNhytLadaDY5zMGUkL5OEFDAv8
AMRGWVDJiEVT9aCQMsLaofVxMEOmNp4Scx/E+rXPAa5nTm/xHgm4DI6MRHxDifi3
Jg/IVOcmothRqavfGYFfuayzPSpjC6nHrNMQbH8EUIZpOR7SNhEKHl9tw1niWLQg
NMtjF6I5JzedBglX3t0fU5B0VYpOLDq1Gu9bQPDMWmvAdiox7I0IP1zWI7wivaCf
Dm7p0y0z/8jU8mLHucNx14bOBmr3l6Rb2qLq+/CnltRPqPBHxFRrUaYPh1NvRqcZ
QmVswy0bZehzdE/G02L8w0k89wJdARQ4lfkJKrBhpswxmMIyW+tQ+omaAwR/2qKH
R8k487lj9BZCFFwIaKnIY/AAGc9N+Jxyl0foS1qKvTt0MPwAXiS5owFMYLppDEMI
+hH2CiEW2skNJoQeJ50++nkW7ahk7nDJX5r/D9DPjVBFaCca0iKlmvLfCrnVYFiI
2cd/hYEYR5ebH5d+Imr1SrOMUztzQxojbCGTBAxWpZQmvvW9iMZh9PP/4ZPZdmbP
gw9E4fsi9f8XnvAL18OqE8rFe+pB4h5N2tj/BzVXbkbHE6oDRBBNRieunOr6xU58
VbbaWKSvLPWEjFB66TfgHrxjYmzLhA67gAEeruNvqZ2+XyK8ofsQlRCktVspD94U
VaPUQgh2eDyZ7DjgYUz/eh6y6V7TTB8ZQ45L2WVv2xUDtTxu+pxtIFXKRFxFxuJP
VYKTCMtvb3ymruRtqe5HjXmLcEIQmlc5Jn2wzXImKAd0/tO+dYHQN5VFX955iW1n
x/XTftUqWk6Wd4/zUlh+zo8l0oxl4vQF4ue8rgNu4YLSvyqZov6vQYa+pbXhHzS0
P1WYaJUMP51r3uiSVrN2eOvEQASXuOltzBrF/Eiayud97eZjzhfRajhvUj20iEpE
1ulfW1DANmqb1D4Dmrk0iRszl95BhUJEEC104K6xaykrK8/fIKKc6hC85+BN+Cm2
GsSZmuaMvAv81Ol7veoxAH3sF4AtS1folerDXJCfzVLA9gxtWC3wKJK+T0vZGfRw
PAyRES5nV3lwZKlney+d7krFUWzvD8a7HzdnEsvVOr0xPb3oOHoxlN+1g2ZqwLCU
6SGt6WtDW3ilkxKvqbD+wmKAz1YY+nQ3rqQuoYPCp1kg0fFa1qHn7RjOIkhcle39
exx6OPW42qhNZD9mODP1RiJ2mCyMhkfm5NAm32/bzfUehdY6rec+f4NbYSPpvogy
rB0vriBA0Od4bji0hITSU1bmJ8NuCNiOPenl4eQkwHyo0wDHZDbGCVLPBne9fjdw
puwCO1uxUHvTa4NFaZpXESOIXowiG1j3c/Wv+rOO2d2bcnhLR+LERmUqEBJRypi+
WYscBKQ8xTaHVfTEHrV9WgCMWFaS5vOr2pypaaqVizGnKeQvf023c4oxEBqD7+Dq
k8SKrUywKStml6+jK0hZbwiTDssV3Tof4q8gYtL8HZpvYMn3hHK0kLbxeF0L8/j9
fY6PV84PZEaLDRyHY1Akb8Zjl/4vQuLDqX3+aToHlaOra3t2UeH9BkjTLExNUPif
hmSpNl3T0oXa40LBgjHe0enIsgVSPztTslBdyFClT2bupl/EhT3+s8wKikIyyzB9
yd3hYUPs9WnC8U/WaRVSTwMF/6S3fKeyyp5G8zktk7fUvsO1LqKD9rWlIaaokDmI
lN1+AWLBzSHiqLnUF+KJo4oli4BjuzsBuLcFc/vy/QZrJXxbSrPcM8+56ws6i01B
14eFoV0x3CDFQLHlhkOiUFP26LUU0ZycDbNsWAnei2WJHmHTwQ0QRd9yqpmgIMky
ax49/unr13ITKysHU//93OtNvYcPin5yqVd3gBzTPCSRM7tZUjK78JvKyqsXYfii
omfeekgLwzacXwtbOdg271nbpgAGf52w31q9L1KsBsbsODCsh77cnQpmmF2xOi4g
vXmyMjzyjvw8zYRAzm36bZXXpb3YcxbcRv2b4xuveNehpP52ISgjUO9+LTeOAovi
OUdt7l/o3JN7HvUJkny372u2ZkrXyGxtsgwRE7MnW/hX8Z31Y+wlFLBEdTUQNy4l
zV8T1u5hjm+RLQ46pDuo4X6iA+13zz4HLRW2s42SFoou8bj/0rlkFezeyL4xdnih
Fb6kuE1XVScn2c+u3gaTA7ZFPlCd1XtSXIqwZkFwu2yxKYAa0OAWcrtojpPYfl3K
I+NzDYfiAuffmNojDaYQiVPgMOv6dy2qh8XgwkTqschtJ7yfflDeyisB76+ca/dk
fSfwqzuUJ8S3R8Er6lCfTw0QQ9wlFaBjyv+QdruYLpp5/MRqfBcZwnAUhE2u9nJm
laiyrV8T8EC3G64FD01naX1+T4oedCuhDxX00YQDOSuudIfJiCcPVzNU77uUxQqN
Y5PNMTzpXnrSJRqT21sJdLr3IQ==
=fnGO
-----END PGP MESSAGE-----
