-----BEGIN PGP MESSAGE-----

hF4D2lMrnThqI98SAQdAoM3uMHE7hcj3RJ6RTGLdNWoiEzYbSgf9M5Cgpplwqkow
qf4c6iJakDlDYsL4ncx2p2Oi2cK+TUob1DS4dcWhYzOdWWFIOIHoZlfKO6kYE1TE
0uoB4ZRY0zoQhGwlMTAm1fqfBo8PVrqRjubk6alRGUyFALphRvO/2JGQRu4rwHGt
dxYt5+5Z65IyvpucEEHQlM4tiRTlyTzS5eVaHvjaSKYcG/f2n2LnIxYB5hm8fxbJ
nyeD1ckAElste8vpHyS/7CsVtNzkG+de5vLp3s2f+PEush07qjWK9RHvZqpReXEf
2R9Ixhj1+gtlgW8avx5a1SKyhel/rIyVd7Bs2lRIfoJWUBUjfH7kCsHpMmUBmisd
7UtbBLcOJ7Q/4fbO1D3/fEDtpoSE8ipmk7tpi8Nk86/kqZXPdKhdTghs9pmPmnjR
v+eilXypa46RCKdBwUVhGRbklJnq9FHQkmhdyfl0qDPZXCYJ1x4XslQVsgYupbfG
zLjx8B2Jh7VRopBl6knvFaw2pbVwwsnWCVJCHnfDC1Eq/cMVBFXZ4HrgPHzL2hik
0wcsrnc0ZOAbBe5xJav5LrhdYpTBShb7cDCbwSuwHTGgl0tcCNiaR+CnSmidphzb
wy+KP9ku75osuFJyPahAGaSFmMRGv/giqVCUSFawzIOcoX8mah68wtSbj0EAEWFH
Q70RJKSrvuofbzIcEWoskm/chE3mLi3nuCCxU2BXfoKkLkUNYM31PilSBI/T6RmZ
cpHdUrwdWZUFf/CWgSYFeMMciK2NI9GRG2etJewXrclquDyaro2OiaNqudvT4NYP
FWIqr7mGn0X75CcSHbUUPIfRal4pRnCF/AvZv6Si3cKJH9qtIIyCsDDWRVlZ+3xR
xdG+is0rIYIzpjc5RMaoxPm3rTGh2Y6OkzlZDFPUCnSlMIkL6ZtRhR8eSkcXjsfm
i9YliLuBEqcZ1oBw3Y7E6b4D3ylvAKvglI+iGxqGdLxEw2miDOZnKnA4M19D1D5H
hRoxtPVQcOpT8y21X1qYYJLysfUmCzcTHBOU3oFptSd/AvquUOWYQrFVvasttaTJ
hpusgJne8lbDRrl70YZjD8T25YjreSWcKyG9vNZSJIy4KGI+6BQugP3Y+K7I0Fzy
174gCNqv0nmm4UbuSeXzyuPr1v1RleJxlh/sTbg3SJ2iRokCXM6ZXFQhYT2XdltC
zQgkHdMuTYoX1WS2F202YE+QbDWNEXPdaq4UWeJHB094MEHlm4pj7tja9xM0jJhy
mGQ3jSG+wdxCLKVsCIDsC0YKc9qvhuoBAdXI0GXBPDMIYD04PcBz/qt81HA1Mfzk
kSQBfB2B53ZFXU2Mk+RJwarz0HpzXdhfpq70hZDEjw3p3pAKG021F8pLDeQOgUxe
H/09zC9HbxVJ1AbwjWSoX21ch3NAp9WkhGDejWL58850a37oKWxcTRce6IWm+Hhn
U275oPcLqpzz7n/4rDoIm/SZGAN+yE83xTya9Ld7k8BMuzUuL7LqrHIQ6w==
=czKd
-----END PGP MESSAGE-----
