-----BEGIN PGP MESSAGE-----

hF4D2lMrnThqI98SAQdAhZYP6OS0vNkdKXd5ErYH6Z4cMKqK3L+d7cvjRUU5XBww
T0NVewWOcX6mLK4OfIDmrCHVSQV6IDg1kpj8Dgk6n1aebEmSDmiPVBAPSGA+SVoa
0usBOLWZDiHiEdw3gJyVRXUpzPMPoYDGabJqFN/AQQEqCtVikods37Lhk5SM6Wr3
6gqz85HflUGj228G5OsrBd3SV0CkPKAsAheV9fVpWhjdyczSbPqrN9jVipCd80iQ
Go+vBf2oFihpC1tPcf5s8NJ9XB2VqSPncBvL96FPx2Q2zlaOiC6tachCJh55g7Lw
zhPMhqqc/xOMW9vrBp1dakpMsWIsQRg6G59Wu6BJuwUqe1X10Hp2/T/yNYj2D1dM
t1B3lyDjJkAx7kbT6oWWHrRN/qH7VEKEUMlNWpWdaw1AdER6iyMX888+2EBRnOC9
/KTVUkCQxf0NmX4037+6VCKl6d5N9ga3s8JGvrYKFIn3IIlgl6Z2hJ6m9MxV516m
RNqzkCA5WzRVI/qnlLQ93C+drUmAifs6XYquCtpoqvGzmi0rrvPgcIRYo2WRvGT8
7GRnTKL2DtaZXqUe1PQia5CZJghIqPdTOAYkdFo/nt2lwn71eFbJ4IIhfFNxOU/g
y6EjRqJnatYn58fF2OP+EBEQlvKgQ4y7QQ4jCG3dysV81QntMf48SKoXUA1GM1Zr
sb3c1diaxJrXigEqPohaRAlspGLg6D2vppCBvuurcKESRt0vMqRwquPWnSPqYrLD
L7SZTZwWctVIZQrXhV4wIRsba5wTvu1nJ8kpJughIwVgKON1sULIQHLGnOq6WkPR
sJWIidMCB1UOIwhIPCXXdX1woadkVd7kHVlEEnAlUdsmVOt7NRlEowM0BuVtN5Wq
emEBCJt70ttcHYA7Ek0YlqV+fBx4MH9gwnpabJd5KK4PI7UDVRWw+NhA/0lEhGyv
YmUQiEePOZMCLLsgWssEVRzoBnTi0Owr5iFat2wepuTQoN6KHou/EbuPlv4kgBR+
RgUI0stmDhBoyRlQVskemLh3AtUywUjYMyGKUYOr6B5TyhZRjokiywI1n1+csNF6
1m726reC2jE7dROhxCxRXzvlPYQcearwKWPC98QH0A7CNCREdZxd6yEefF1XT0EJ
UV6aPSegR2uyI8HGBpLeCPwtkHKWtnwAY2Ptlvdgm1yIjAKi/crUiPBL+3S+z7a4
+duG8SrRteiZeeDzKylLSrVdbwcOcQANB5yTiJ+YzWu0O1/YQtl15nlAlSosz7en
k/EYelrwDTzT8KoZrRBNF/PAxjWgVzx3+n+28OZYaAHGIwfdbgrUYANJY+SQmlOY
peXxurgbGnU5qwEZV4lcZN5+OqoTZACKUms4zMYIKnjEs1c9pyePPnUy8/pYhcB2
U9gmNXqZYTlgnYwSPjVOkhZCbP7L/AGQXxT44cR5ABrGX9I6Zxu1i3nXu3SEe/iN
T2qijXVre8lHlYpLcEKwvDD0H+gM6llatKid5gQAiBGZrmSoo2tK6HX5tRCAC4Ku
p5yjhLJehKD4OEhT+w7D/CIZ4ozyUGEvVBeNx5INOcQLghS9476lvjsJaHZJRCBE
sTYLRFNJv39RI9P7M27vecMZwxNlNtlVMAXDdQgINksVk3E+BCWIfsEJefHMWtnD
gf/ZVG71a6cYo3dV+IEm6aHgLfFJc18aZ9+h/NyiD9g7cnJnGQ8vuRJcm4TDJmOQ
SkLjgRP7LThCjAfUtlI46FWBN/+ivBEBRq8vhWMZ6pNpwaFzNaTR+pu3SJxWWBiS
rT8jZ1vVVG4Q3hYAKO71c+FFec5aCmXLht9qpCT/qNyMfLVC51tjUKtlE8NVyQui
DxRvCLIjbjCRogi1SZMBhcFW9SqKSbtMYG8DV54QGhPo3db5pEzVYsED9XaCJDMP
HXV4hDxnvXd7T7oH+7Pwa9DstEXhEr0SwFCcyAUbrpYyeDnu6sz2JZnI+hOR2x8I
eLCj22p6gjeJTTqgmY7E6CLJxtQV689dBWQ5xzCB9Kh6t1jTVRrpJUNk7iISrHj3
lezZwdQ+bZjcnZ4d+BtJ5p+KgMuAI2T38lX9nLNsvVhEyfJOjBDfWnjbvkoKa3mB
JojXwu/91G+UasgVpfSYo5oUpdSOvr0TIvf3QO1TzXDhUaVJMXE7LGRjQ4QCpQSs
Yy+v/pcs+gcDCM4KYv7hhbht1CYwJ9zojEwzGXkRVIZzOivgaI9ZhNhooUW2GArX
BgrVS417bCtM6+CchpZ7wFqxzCsjUQRl0JHiEaAocrhxrC9wX80OPukTrPBYN4Ap
dXG9VehTb9zsIbirJ1koLIRpSubqDxqgD+NSf3pJqm7s0eO3rP4UErZs771J+HBG
gTOV35J1xIjs9XG+d/2Jr6lCzHCH/6IRqmfs+8z3j3fs3qFV7gxOOoIpuZmWUDKG
KoKjiz6pYx4pLqNVfwtBQ6Im4Gor2APTWuGeYlrEQkipljpm7qze2qNnxnXa+mDq
Bji9T+bTxzUX+N/h6SEXdiBoqORBGo9yzKB3IaC3bcWL0XXDTfnSJtD7S9z2pnCN
kH5EfsWVck0WgSftNDnxF3uVF0++6+l/JenxCvkLxfGEQt139qoK//n53X7KTVrx
Ml5/SA1usMqNN9abQzfGpzuK4OrH+JHNHv4Q8k4/p5zSEvuQjyVwHn0wBgrChfN6
c79wqmBsw66dgPN5ZnfpuxkbFZ4ELaAWaSXrgkZ+R7ZvCVteBmB1Ybd3Oz0XFujd
UEQRIxrHbeQX+7ATzOq+gLbC6xmWOXBmQKg/eCHptWTq+f8iLU+3lOUydiK0Kjc4
Nz4M4pTKSUwH+DRYlvFu6zty5WWUkP+mXqP1f2uqsCOSRelFiCP8Tn4X2/PQSEf+
bkngV9DEjJtBRr2krRC7Pzbt1V+5tTJlBAqI1gfPetdKHGuOQk2eV+e1wbaxFtfW
bsZhNZmAHx02FRzA2siH6StKZKn2y8E9rJTf3qgZkZnU5LKuzpTTSJ6Kg3yQIFoU
B78EwMbsFW2ofpFkTtHVyHgl7PCrVCWxinlcc3igIMRNbK9M7GeFaZrTxPLkViHK
ETW4K/hMwyM/DLmKHBQeGowFafR1m0snyC0dwtFs5XiUQ07FdlBzpHCQ+aM5CGQ9
PGxpMPwsKedH3Q2ucTpbdGJGBrqUuKOzaheoGYzLtE/o74E4aoqo0QWZl17T00jn
XfyjeT1WUm4nTxPIRTu5HOvf0g6n4rDqoyiq1qsyQTfvNru3oVuQpTOI2hgU+UkI
S9gp+NlibeGJoTSpFI/FxjPwp3KM9lS6OMvvnXCftNb8zk5VVX+iC+gr5Mol/Xjd
HvSqHEiL1mQmYfYx/nWjGtRH4sjOeyO6KL9qhAFQD9kBZE4DHd1M12TBv+U3FldD
E1od2nv/a3o2og5hN9O80M51+Q93pDy5kVq+eprvHWa9yq3kMuPNWcyMrrw37SdG
+Slr/GddstT2BRV2uZ/R5M7ZnIUrYK0CoulRlZ0Ol/SLRuiXQmbEjCibaxCBJj4d
KLJXENHwQwxuwoAjwPPKX4uz+oWCowO+fd+JQAFTLogO9IHx4ccSv1MU1BGynzhw
IKgHGBktNj9foVtOqcdZ58na8SzFKXKB6ScNn7UvDRuGrYEG4EQ6l4agUR9N8iz2
Zo0k4AXRvGnxXz+TIwISb2Nod2WY3LrSUUZKinUIyoZjW8groZ9x4IaBaM8z2pdm
/1mxsqKNwl1k
=SAQq
-----END PGP MESSAGE-----
