-----BEGIN PGP MESSAGE-----

hF4D2lMrnThqI98SAQdAuab6qSurVIdxRoPCt1YUCf/Pg0fC4Ulz/cKucppqR0cw
ZsUwyqhHfQp0/lfQXKI0YbqXLQYMH8n3Obv8cVS/iz6mcII46PmU0rrsp6pafCIP
0uoBW7t7f0BTOA02iN8i6vpbqlXIZZEnjO0kqe8iViBZc7I8Lt8rTH7ncAHJrH16
U85eRIwzyOVPeiO/mWo6qwB1k3/SpNuSFb+rLqRiVqYTCrWUHGpTTVAoUbH8muN3
FiFs+9++1FdgoKWZazbSKyBlY43TiNiAxgvfCNTftw/77G5m3xBpCUzik3/4nnAZ
TgphD7vcHGf4IiGi3yVHm/l9MweCbd3ds3wDpAqPiAkbwvn5dV+GvyNNA5RO6oQF
kU0LXGIbnDk7qP7irQFV2Gy+AfyQxp1RtJF1wF4MMVZRxICUSBr4N0eHiyNqK2uK
Iwe21ffn+j0Jxh0kuiDcBrnGgO0nUArXGGkYcjQUiBQMlpcTBn/fepOhiHJ2GT6r
SZ24jeTYGRx6uy8s+zW6Sgdsywk9s2TXY5SjUiSbh2hOhHgrnaQBDyZ8jADZ9sFB
VXPT5Q+ZJuby7kP5i3ApO1dvRAMe4ENGmTRmZKg1tM75QoJR14pTcvsMdxoualYu
hKJ1Ywt2ksXcRImF6rOCZOR4/sTVo2YZuamCuLKJDEQCJmhOqrX+4LSZsxxJH+ro
edkmZx05Y8a9GffCbMypIO43DLIVNTPZQLJyIZJ9RJqRXkcGnUnOKuaOVMI1ctQm
lLG1ExUTML3VrsXpi/CpObLOyv80nFDDQatWj4Q3XL+YiZU3g/YFiw3nJV98LmyX
wdmAsMKGGV+hdRshETrUDKJCA0RfrbQbKqrhpN4dIpJOLVyczeTq4fhNt5fjwedo
lZrd+4wjVEHyifcehZUDNGvS3dTfTvEd2/9J76WGl9ktom8tMJXPMxGIIZ5Zxxy5
eBUJN8QU2JbBfdTXoo+t6HsUCQViDUfsHYmHcUlB/TxWcwyCDCFWWa+QHBX2TuHw
xPXMWYcqMJDn52KwjVftzTlsLJxxVb0+fDPh9nSw5tp5/h6Dxx2YX0Km4oqvLRCQ
bomAs1xYfwJkfhvbYoNxoP7lhKkBO5GR6nNo6bZ5KFohbl4+LNZWW87K6AnASkZk
9xbZK2vTdZR54D+lxzBwCs/fLc/HHvpn+RupyZr7Ye0Q5hqhJ3+sLauUrj/09TsK
y2uc2IY2fCiq19RkThDTvOUTZPqCi5D+8NHRIA8ZM8mfBticLV8Id+IfNKH3fUny
DxHJeRF9ZhGnzOsI8kq+JzqcbXpRjNvzfnmLdA0JiAAq5YvpVSXX/15EoN7HZqjk
FaF/vw88/UtrZqxIqZyxZG7lnQxXX/A/xcLBMI38G/gG6eOn72lm8fG3Q8Yteivc
MPE9x0TRpsPBPd6/C3P8rXbbLLujJRg3rVo2ofM6H1wDhfbVcRjdx2RWZvGTd9el
CSd5CaWYOUzhyUlfAqKVu2EstXhaqZsV8KO5TxznIxBYFN1b3k+H2EImBDpmwe7X
r3qFBxQW0C70WaRAvYOhAQkC4N8ZfWX1Ar+3Ca0J+93YyoEmhxMugVIEUYGzDssE
9X8QPO7aqq9qzJc71qphsfng2f4PyxCv5n8NA4vwbdfO7n/bTq1++7M+BrqGY6lb
6nX3jsBg/05QTWQBqUu0tSmVax5YEYr35FsuNzQjerrDuV8TX01Hh9RLLTDLlZCP
iHbsY7JvN8s=
=6W9o
-----END PGP MESSAGE-----
