-----BEGIN PGP MESSAGE-----

hF4D2lMrnThqI98SAQdAHiQt+32DHCdrORK4uYEYR73K0mFp8J6FLx2F+MA7DWAw
aD8z1dKT7eKhfN3lO0hphbViPIZhUWqq+SpVzXN774gXV97RrYVodV4rNJk9eh8Y
0uoBwaXq+jPS2jJ4JyVsfYUMdsPkJiQu8oT0k5DIWM4pAhGJJqket6ErJjXxhlVC
nKpzI9JgHuQbsXeBH4/tKqr3DKaprI2Dc0f7iOed6SN5E0Fpz6WEsWQbO4BDf2NP
z4tm4GKlzn7jlIzlRLmMppWwZM4/VmoVmui8RaUiAyAmBd7PiR2URZDJCg8Rhwo4
oNUvyklT7pl8iDN+Zl/Rnzopo/Rer3PPd0n/Ax+8XdtexhgMZVj5OoJ4dBYNQ3Zp
CUqLHL9uOq9STI250Zi4ZHhTlOUiC0nTAovCbFSS1iNN4CySA+jRCnrnknlNybel
3akJVKRxBDMuCHp4lOtShX6sH0b+AWPIYxxuRSo/dygjXk3Q4P5zJ49Sf5nCDU4Y
iDR76ge2Gj0tms9gP+KczrIgyd0nx/AahlMKOV31eKmICWgvuEPRuMAJZNHEJGwc
o7JmyRXg1QMtuWuyeR0AAOrr7uxcOQPc7648guaM2oa9MR2ZHeHFmhZXEQVRqLPa
0pdHWmYsNwD1JZDYJAbebtGIKazPgGm1Uawf/74Ys2XZRLj4S6/PlRNxRNy1J3J1
gSwf9DVIFluwzbwUBsjba4UGVzVhWXZlVKjLdngUS1vrrvw63VxP2wgKu2wR5CiP
ei6uby9iiZDRESTq2Vj/7n0wLp9dpE8x4Nc6E0wsNAAaX5D6Cip1cwYLoUz8skfK
aeIksLck2IvaCRI8YL5nSz05Eu1qDtzI8KqF01dUw5Dhvub0mUp+Wur0Y2/wtmqJ
75Xo5gJl8aNyAgZYw9LetFXYrhZjnQkeDhE5kVcRdM13rBdPw4qxf9bbuKnyoEUX
XaaE75iQsoWcH7+m03ypY1U5JFTn1Hp2H/op15i+I6GmdGBv6teooCRWHY91EPfO
n2Y8LkIQW9jEHagbOHYhuVw4tXo6rupijaIYtg4APZyTRSzUU/de/aHty+ZnBYRq
DYLOBeSsA2Xjqg1xReJsjGGdz3eBvZBjgXIYkuW01utgtzbP4pV2JXeWKp08VZq5
CFz+/a27r0UjH23ubF0hFjx5I9yvWfL9cjQYMxVa4lwXwlPInGml7Crfcmby72ek
r9JzK34VQuX8nWZOp+H+xAt9vmZpU4AUn/QFf/9K0r2hTtsLrrqc1QcembjtefLM
eB99O/wcCSAgrI0zBv5bNEI/EP0LwUD8pUKjGnqJcojD+/+onohFlRHLoJAUJmEY
LAOczOE/G04dz2dfkhq6v/57F503z0veI3RPyntbeHe77NARvpV8wrV/3Ln/UMLX
dG5bbrA/vmN23EKj80+sFmeQZCp7RnLujBEUmxJK1WJDtP9DGOJkrw8BaXgEbGyy
sfj+sne3dqE6pwIzB63A/ky96ZEzll2C6pYeB1T2VxwXVt4sg+fEnMUGgBUcGaWB
hpbU3853NvR2gdjePPPSu6dIugL7tzq5RB0rVElWFKziEEPIQFSj/AKGIWPZfQYq
GTLloVGYT+c8Gczut4NNuw+fIKH5S7D9QsWmXeoUgdI9fKAme+6jmFJWMQLdsxBx
Uc8P9jS7vt/oURH1hXGgSRaqrQnG7nq6ubrwvx5lNNonTQalf9+zU/MIvTzoblZf
8Z7vFQH0toyH1OrTUFTaTX8I73oa+Ln1g73lI5YlWXiVbFxk2huv+qwVElhO+nGY
cjxiMm0Qv48T/Zxg4iY3l3hKlp1EFA4iDU74RPSf9UwEVKSxJ+Rce/BYDi1s7nDr
h4tblPIDw9akce0mLu60Rk8Dw6LbxMFQHJa0On6SOkDkxg5f6qVTJfFlJyMJePbB
6WVbDKBym22hqOYUeaayN7Kh8JNoK6WmtW95oCOF60W8s4QXNe/pgjaxJWfu0Mi+
qW4orTJnI5JxqtTxidJIOGMJMN1opAGJpnK+YEkfHgtWMPTgq8pgXgTW7MUB66DC
yXGcm9VMJGJ3rUF9uieIFlFWYvFI+9+Va+d05vYEDV5Y7QMygHovuqx2VoNBiVMi
GxANS4ELhRmFs8rtKd/opMRboiLXHsfwZnJP/lIAF/DuwyJF8wayMQNAktBOTbe3
aDzYwLz3QzEZiaU0pGCZrQ0QIj2WpboUkDDeEs9+MxkbhWAcLKTOD1B0MtxWmBAK
rIKmKzOVopPW+EGrRw92e12cG5Y8gKboFilYyL1Jss6VAc+kDngK3g33NuMUnnjf
6gL7/V3zM7n16gDSOQgaZKMi3f7h2U+6wRI2yU9t4TnTLZkGnV5XxCa/Iz6jHt/v
dIvFWPs0IH4GSO40tFdl1va6np4YSSg6N+uq/c5XPMu6hYmUth5p5xDpJcnI0IU5
yHFEgcMcjdIdYCZllwRrU4//8cZZERTy3LxSK8CpCXH33C5h74OKFPXsTMRNFVos
q7ZKyjkHLOqci4Ub8rcX6ipj07MhCpBMxPnAwhS0SV5az2JTQfoMIY72w/01xkDe
SBhmBEHrLu8LQu05r1EHpwhXJjrXauEMymVbgAiO559K90Q1xsQwdTpp4Lw113NG
nwl7GTJ++rDykQ1sWVMoOjUTkVQ73yRK4R1dyJZawOvGaZiK5en7KUVj37HOcF1O
ug==
=lLL4
-----END PGP MESSAGE-----
