-----BEGIN PGP MESSAGE-----

hF4D2lMrnThqI98SAQdAPp6n9Vn9/cl2hBquC5UWUG4nXlc0lU7YT/nJ0KdDancw
qk7XZjn+PAgFS/xHpQPpizoyNCZPvMFkc5Q9CGoUPof4BaYW2XjDXTPBwrkjlery
0usBHMSoZEfNYNUPpcXmsxv1CjyTMhEJyHSZeAQi8zVDNwvA4nTFReWHZDdOzTPI
1IPuzreymbXi+5rFQ6ao14VoY7iRx4Y7deVzjjwPiqXtW0lOLMu2XQHj5HYYnB7c
q01WBVsSGxr/3Ud/oiSW6eBppx5J5ZKPM8NxE96GIuDtyEHhpLgrHOvkM5F4i0hi
7rM/lSqEUBxiuO87n5eA+M4L2Tluj9PPO4cBcewKQviF1rhOAtY3pEaN0uw8Q5PM
4UohlvRDPqEuwWbo0isMEdcsJHp3Mss2Q8JXgxJ8bENHN/66YHxO3vIfC4lV//yU
PSMLO6B6DinNi2gFDvsM37q3Cp3pgGDUtKypeHsf3XQlenG3PUar+fYVv/VInKDR
Q57jjSJOI3XnPYnqEvtP5OlqVK4l0WeqVM9gXgsP6QXuApzEeQZ9T2l5ewzsbQay
xzEcSDGtvkxvg9s+CF3NJojwK8RfWjPDt/hSyUONQIL/4kbt66Ll0vHUynSZE/Jy
ll1F/7dZ4jevt8ofehwJwcFs2guVVi5juYfjNuuEu6qi4dYBL99oPq3YMR+txvM9
LUHUxcqtC50Cs2DkOsmq83H6L8oMu/22QeQ8Bx+rEgMBATKHOao83Pc/DgMGAXvb
u/LQYtMa26hPkxxUS50+Uxf6ApYzRfswIS7AXTpbymIS9BT+b5vCD7W38xxJOz++
p/1qpY2inCsgXkfcHbzfZW8PCTeE0TuGUcFzyK8lzaeevnaLQwh0GP3GDXfO5X55
GJMMYDn8W5Yyrdw/u9+zcYqv2oAOhI2lJdKhUGUc2IbWuz7NfO6JECi+lrgNhnJ+
3D1+VvgEj0e7dSGMQzJia2DzNcA0ofEa5WaKwvWev/FNvux9DZy5upacPXHpYIeB
23UVa2ErPXbnbV7IXfFVY8G80GgX/WkhICxfL6D3Fn7cpfWpikvFBNAdGjxkigN4
GBtICegPbNQ3OSdN0wI+234zTXmw36hGE5PMBU9NGiKVwa1vrzdFdf4o+MbWUV3e
/OTCBJQmqSP0h5RVm1YCfWKm1KQNrnaXUATSUqEMhqMxMmmxv6w5NwlSZ4XOg4OQ
HH1C5QJXqQJQvNj6Wi69SwrowRMHw3NG1h7fBo9TiuwMtUzvT6f6apV8RSIDXPHq
gk6Z/p3N8QIfK6zs1qJKqDlGco2M+B0MrhcYS6in3l8cx+YtD+OxkSHhiIzLUJoL
OWJcwsB8dP2z0W1ddIPlYwvRKkG60s4oSnhMsZbD3Hp10iJzWwF+GsPPpSGdHTZ0
CMr7m3IGfp0djGL4w0yLys8QNkHW9smECrRwEiJD/VN+m/P0LQMkjH0Ys8m64bX9
dy1Te3npSRZLg9CIr1NvFPmdmeox8cfSFcuEKQ/KQqSv9sCPb89A5anTol+Chfxk
yHZDvDO6DCeeprOWyGFxixO7nnkhxy+zebml5razWtQFiqlyFIJkrffBgvVhEHtF
3SNEZxNLolaUMbe07UFG6KXPHk7Na+ivhho7vGlX3MHfdj7WkckHHQ201tN+7xIs
HzeZRTB7wq+MmAjK/eWoH/mZ7meI8Fue+GEE9Fn4X1+icPaWAiwvHBvGijdLlQH9
31I578rUbGpxxTg7TJE7Vvo9QK0Hh023C6ym/+K2unZRkEiDK/yDV8Lb0v3oQrS8
pMcwhebPwhmQXKGXqzJdPCwBuGkojsRhL0TrbAHBuLAJFaFkAuI1frK59pCeEPwt
CeffrbiWkfKKeXhWU/SrJ3NyVQcJsCFxDyShLrsxRi5AEKme6hplCjjKP4K7v3cG
jeUhi2y5K47BfxA0EfzBLcJW6hGRw/fueuGl1QcHT9OrDuLIFIEvXZxzseTgkBWU
slTfrPgOmqVKwaGlUuDh5S4cXv2nc4Nrpu0sQMdBMmwxL9lN3WRmisjwiyzfOj7X
xrO3clGqICev7QTwu8+cn31QdBXB3v0tbyDjXbLX+owxWxzEH1M+jKVolSSerf6d
VJYgo1bGq0fnifrg9M/EFVONT/rB0Bgl5lfYsUPIoiFPK+inlpyQn5JKVyfnbLwh
6md3gwZN9HSRyAlrGNqkRdUfjW9JLXtgQDKOxwZDjF+FVEw128Uy6+opD9HOVTvC
JBuYxZw8ZsoYMwsf2UtJG+a7vr4f5m4fvYFGwEAz5miKLu/OncTEXhMXIeAGXK+U
5vzlRjkOHn77OKbkR6YV0HRjAAVjQZ1EwCrzJOfCmJdddEhX2ycrTGOtejCYafOu
5iRpcdQlyxtD8nG6s7peAOxhJ3wXlHdyK9/77WAh1qegNzxmd271UcXIrYHKypJS
2F18T0RFUQBvvS+ns7ZoJApxDfE2W3bwiueKQH3nu1XsfWoqUxRPjY+L5JEoZL3T
8aQcqDA0fiaD/0EmxJwkoaHnaTpyaDEBMO9YjSvfEoD3NltsWUKqVMWWO5RACNDD
jb59LI10/XIuywncg79Ubfjz/RE9qoz5XS+eDR/rICD4bTirR5p/U4t1MvOgzL+P
+m+EoVgOCR/bmeFMJ04n+ncmrfxKdG0D6ibEmtPbhUJAUpqawz1bepPNKNcum2O2
XrAU2J4ajktQeJok8wkQCNekPB7tASnDLg72ChMHx4uWnXSkkC0qM9TS7U14RJ2/
WzDeOnZ6+pNp9THoXqNZXVfXLI8FeiPue7eRwMIgkZyrEvs+dG+jj7Aki/ICzWEk
21XXAikTxVJn9YZiMZI+m0Ov8L3rMXW5HXtZjFDX5ij1bOn2Q2hsGT7D2LZG0rCK
Ck1SAC884ZQIQG4RTa+gXe6fTBDB68d2ZMNexnENbGOcnqLY1G/5nv9+3jKbKS31
ImiQluVWvtGXdb7fGe8zB/GwxCAiPKa1IhLuTCEUGWNYTFI7PZCvrEq0EHvLQfgX
TmBgL8yJYFdYdCA5Y5ha9dGrH0x3A+O/30DiEHKrG10iYnBrtk0xvFuB4UPqVufP
O3W08aXVQmebHQWNbt1O6JacAY3+wHJ7pn/yxALDJ8GpsmEwIVyQBpftY5BxSUgm
NFwTK3fAhpWxKQyXDIBb+VO3e5WzRN1aYBLPRDPD6I1z/NMTzjBXpmIqpX0gcern
rH2WVC8U08FNPd4xu+i2mVf2jxPC8zGdQPSlFaUkHtz0Dnnyd64sDmAXTC3BLKGR
iWdLCq26EytOAq8qZOm/haWkSbKH+DsTXXulJyKnOeNFBqY+x1SCiJrIYKEQgMCV
16IGJLi1Sc7Dp4yU+LPmNKSnCD96M9E6BtIajLCmYITQzatzyIenO/ZOQqNq3jnW
56sFjDmkFT7v/14OGtWkw3jnztOSBYubH3Qm2ml1s34MfJO4mtKjnqLbe6+3KbCb
rK9qQGmEFpOpUJgjamQRCvFwx0sxtxH4F7yGaSsh1lsbhiN8Tpb4OZd6S+hXQ+4c
gV6VO5ew5LFImAELC6d9hcu8xsBVLdGL6XNZmEsdNj1pt7X6EsWr9QJswfBZU1/7
MjPkNQDidny62W+UqZHkC4w7iLsQ/mMhmnmaAxxJcYWWhLwCcv6pP5dIx7fcD3NG
s042+mGzbry0RQ7vacc9ePOtAau+QhtiL4HqSKps2nYPAOQYvX6qRE6ErUPjZ19Q
/OBjQOrlzPFP42FgoMpr6VH42DOHD/NxpeblunYgJH/k0xrO7QDwQ2xnIG+r8h04
z7HhkrpjJ+ahjFOnclcC+EVJRvaPo0hI/2MCVo4i6fCYoe4XmmPcxXdAKTiM+5VI
6UadVmXFtyGwyAGPGEJ27cRAq6ZNP9PmCYzvtw3LcjWq6EsDBiK00Fh21xBWzHvz
fbVWHGXXBAhjaA==
=vQpg
-----END PGP MESSAGE-----
