-----BEGIN PGP MESSAGE-----

hF4D2lMrnThqI98SAQdArU3TqGUGHonrsSySWcVM4kkwJWO6iUAWubtmTHTPD3Yw
hsTLxGOLTeIICbGdlrOoqJLDptKrRAUagOy93rnrku8gvvzA9hLUN5bOHn7ZiQmr
0ukB249OfEdbkLWEJoiCKENcAdSk1u5BA1L7e/qDYfvDDEyysJNyzTOnylfNDS0+
ATUlwKsy1vHoiYJojPIvMRYLf/g1hkSKx8i94PUpVfrj4o8FcB9wgUlPvk7+17rh
4RqJfwKP3iy9H/bg3omw8E2juer3UYpeTwvOvmDAgBZFGY0uAZo7CqSgGvsITS0p
QJnTvvAhsegNZO2nTif5Z726wPRSQr0MdMqCvCirnxpAJETVrfHlzYuwGzolESAR
EW3vmHX7PLe3n/D6N+10lHLmyuhMHioUnYxFZSeTDy/FmqcVllCwVFqzQtTnAxhg
OgxI5S0M+iErVKMo7+GFw3k1ESZ+e7LW6m7jA2iFWStAGK2NKSV+tAaBgGoxTyBe
mznyhzgCScIl91qHpmf0WT024ZjZisAy/ke47NVLGM+l3MNhmIv0BCUxyWuTfz/L
K6igjsF29MYqgCHKoN6e+2E+ZXFG4e1yRU+KZm4i7uu1GtzNBnjH1khKjXa07dZX
pUhiUXekvKnclhnSbPIgsHG6OKNeXW/BziSDixWoqrztVLTJqeWNjo2uio6Zt1xP
RpLDShvh0JNxsr00hu+FwRDR0vJoC07a4lihQCvCBKMWjDcDAn4usMSUahXJr5yt
PpI+Y1wT/hs5PhR1CBKOkXVq9DxQGtGZLgL871CNxinDw8DpFeuQ4jidjRTZnbgD
pp8uTFFXSV7EO4bixkQE6UASrL6XLvdATdd1QTuq35o6e+AN9oOwsS/0e16RDk8s
K4mq4yQU0U0h6UUAcekQqVwkx/khFTGaXwP69+d+6JAs8ZFi+EoYArK7mdPAS1zj
udcCnEbUWTGy6MK273Qca9hbfft49h1XPmutW9Z5zw5LF9osHxQKwlUdY9id+/SL
PFtOaNHjbGXU3I2toQOSyUrEKnJUUSZnfur2BvOHn7cKvjoaTEbtBVf5xoEg+/4Q
Q+Ylbg4Mlrf4JbI6eMFtR36yAngTFOpu/aSn/5KYI9LaZ8j0pOxKr3tfyod/IAJC
117GhzoypW4jYlK4PKa6G922tHFT/tyTs2zLHjPrdyh6MbRIt1mHQL/MGItAi/hh
dX+gKGj/cnshciO3SaUtSTc149px9hA+KzA0zRWJrLuACBleqPh4CVG/n2jULoiH
5MHT7bI+H5Z54h+bQnu22T6rPpx/hg6A0wM9AeJ6qZQjDYQ4UPSdiX7oPzpzGeO5
+XqNNn8B/z45+iKDpX/R27U1JRLbZjVf+ONqQlE=
=aV44
-----END PGP MESSAGE-----
