-----BEGIN PGP MESSAGE-----

hF4D2lMrnThqI98SAQdAkBI8YyZ+ChQzNSTHGnLCJVS9IDi3KoZw9Bgu58s97xww
1pTAKjxMcuotx6pd/vIyfiuzv07+UVaErZ/38m9xyAFzgJC5cDpYHG7lt8ETncTQ
0usBVL6xZJLyQt1RKe/th1kMNL2h52pfTkts51qJzA6BbBCaPDJRVMjEnDNev1nr
fTgYkwX1mxVK0odJ2hOytxK8x28p1KJHp1wJBJ8dTmp5dHxhRz9yFU1cNwacipcQ
JAGC8QXKkRdVzfD+sGIZxCMNmYKGfyd1vA5CXo9eqwGaZmbDQEkvmZIwC/oNefd6
/jXIZTFrajpJ3rC8c7YoDGpLMjg9+GWudhV+hpJbLAnxvalKQw/l0EwysycCfGBT
1UwAtD7keFUvGmPnSPMuYpacG+W1w6mDgywAkxWe4LZaZPnIKSySPvD2ZAmNdHV0
6yqxaAjJshA9bMBgqNS/v6pWUzmCFCMDJ0uTutEVhLK+240ugw/oo9ILiouNtx1/
a5zes5VwXU2K+suulY+98EqOoh/+vytgNV2wC7CXSBiLARZ3B0/ymtlD0XdUg1oO
tv2l63UTml1uBG2Wx/8hpsYpmJ3CuG7ZH3RjSZD3MeQGZXFzgrDPtnYizp+EHzee
xZQdWzv8wpN/SqqEbLUuTtnxZAF9ysHJcC7KUyJ4b/Bq8DursZXf174ZrNUleQ2b
kavlN96KEyKHQsMZlfQa+xwmY4pULfFPeMHmLoZCvjR7sHEcTH2XTgLXvAGzd1oN
604ppJKqQMwRdc0mFVOKe0QKwdSZRSoecFL6O9er+UYvdX7FXE8AlbyOEcTfGMsD
O4pg2H3epd5q74ds/q2aqSmm9vh6Pc72xK58/cOqTWnnq7o6I1w8OqNROGwC97Fq
jc0ddcAjlJhXDVLIQB89q9vmdUWJtBetB7kfqpFAMfqjUuNDWdKdhKYJc+FChRDj
K1bP4wK3mf4RthdULek+3Pi+3LDrGQ2Wdqpux0R/lBkuqjMVYqC22nhTLZwDUU7O
favtRhAxCMCcER488h+cfeafBQdkgCN/8c1vx8HSyiNLN2oRTR+Edg7y7159Zrj6
rjV5UvSND+OoGzVftCC8x9/eLHOY/+vfh5tclAewRsel/V8NsWf4sPtEcRVcNqqN
Y9HABx0hEBHfYBQRy8mCiU9AZZ2vqAphUd1oHWBQUR8ZJ+KHpZ00HCrEV0MPYd/Q
d2QUpJeqBSsoVn63UwKsqE40u9tAKPlxP0Vq/Egj0Djko7cGAylgNat04bxdQfCn
Q6lp2cp1oxDM1Ieq5MOrVgNbo5ph+pBBpzDKnoYwDAbcPjnDI5b/DWC4AWpvjYQt
WegO3vS1MnoR8tm3l49RcgnIn+Z73+4APp9j7d5CjlIUtgvI0O6InIRTUw84LubM
Iu6uld9u6rAa3eDfzK8OEy2RcumYURpbTxeYJfBhkgSeoFeNAqjk2b42MDtvMvBg
aF2gsCCqfG8IP+aiaDYPiIsfWsXJcExwyHQWy+XKdD0SjhV+OqpSBF/CRm3xq4gc
3DS003kcwdGVXoHQU8ltM8WQIeym1YgQxct3YcnABqwCOMHB9wAphf23e1kpmsZ6
ln5E3W+cj5GuFP6PtCHQQ8wNEhkOxh2bvBQIrqI1fg2AbLhJp+1bAHrbcRr2EXZG
Ax7e6IUzEy011O9Wgvg58wOMnKlf+0fAd737NHdBB0TEBFka2e/4NE3nIsgeoVtt
vSKfBtjHWURNars+EbS0i3QttzzOE+X47wzRyNcF7f/oikSAGGgpNH6imrTxfvz0
CadwfLVMOp4rWfIPV/cL0RfiIF8DvToiQ7WcFP1bR3tWr+mDDjoeYcpADFFLMs2S
S9MJDl/R4VIQMKTsTGUuGxxsgdex9pvC+4c4+Ou9YtfAOhJW4VQTaKsGcuQOpiFT
HVPXJqTa+v9o/Oa5yvec4rI8yBaUE7BKws6BX1mX1SP3gVZLhCdWFp1G7lw89WGD
6NEgDARd/VvhB9ixd8vE+B17XV3wD9WVYDpNVT3y25I57ibhgzohlfe0AspxzWQO
LXaQ9icXm72qc0/BdOPD7Qb2+5DYfxsdjUyNirWXCw8xqH5KWVzPeCHDk3Emw+LA
m0kur6UFuB2bV8iWW/pu0DAWcwP5fUYnx12eXeMR8b9X/kwFOpBO2uv7R5FsrQ5B
Wfxj7MHORHnZscmxpml2i+Pa0auGU/2fuZ3MsR4VAm5bzaPLCMtozFUTWluSL8As
bSPBqG0YOc8gswld4fGJ62JaaCXG9vamyedWZ7Hp88K1c9sADNFnW2LpcEPImGd8
+FOn7/SnetyUCv45ewONHo46lj/4zy9uSKaCumri6LNWDxRE3kxeBaTyxXk8AhEh
9gUzA5WKmK0DbZHXrZ+M3ZMz6XeSqLK6/avgtPVXtDiwjrSrzAD+/XL22IAljeWN
Mh8SCpywIqQc8KzNNRFcsN8Jhtc6tObmCQ4233xF8HcHa0BwjDhFbREFVqJ1ZkBo
DkxtBcS4J6TxZO/qxV1voVAEAlV9xJw8dApixqN+Ng/2TmMQyWbRK+s36IAX1Jp+
Fp1uagwmakXuAqf0VWa+nF/tC/m/ymmNpLHa6nWvvklo5tQcXB/Zmw6hZIkPZdeS
TyUUgaQvY6sPqGVqpUtl2Ytwl3VlCEyXQ25L8qvW+Ke/vgJqadOz8INNLUq2nZko
qy3209KSYmKaNql38sRyVV+LouI5ZO1fph2zjkzKGM6alBLwgnGNgup8y7yDQW1T
ckI9yUlYQWLnigVfV04DCrJr+OF4JcZGFVG8eB9DIc0cFslRjxbiGQ5Pj5aRri/s
qJgwlHzUiA9IcQQX7STYAb8fNGMaDaBNrpuEoauy+tnot2kChSEWLPsvR/J24fiP
c+eA2qczgwguXl8ya7TnTQ5kgmHevTVf6pWGeJ/ftVpnp7S/uXHxuuPNMkNtoHO+
WwrW50ej6+TEY0UDXspcNWXrNbCfMINwmSfTO6tpa6O3sCnhj9JMiWva7gE=
=NpzA
-----END PGP MESSAGE-----
