-----BEGIN PGP MESSAGE-----

hF4D2lMrnThqI98SAQdAOiDva8IjiY7UtTX7pqVfdWQ2KvW9JnAaTdWO1L+cmlYw
xj4h1bEUF+9hbVtU4XjnOXb/ITHVxddPl81pEUP3Am1Q6/l/og0eakN17TT9GePO
0usBr7Iz9BsW1VQuubU6D0hUZhb8g/hvvdMCLBYwqiJeFNFkBcBRZ7zmUGciep+T
W+uiLlByDlDJaDo/Sri0mUEfJ9madkAauWBplWObaK81+nvMjIlBtSMT0RxGoiVZ
BrU3yo3bAxixXaA6Llm9C2rExfSQHkJJBvsVnAs68Sqm3IQPknki35HxcXGKAxXc
2AxTSpOrgxrx6OFpMO5RI47A4CW+VWpgP2unysTAewzGi/ov4E9xBIEKrHXD5xZp
gpZD5hL0cfHqTgvYrYaTkk5QloR1XAKRtOlqv5x1sv0YznpIBYdETnOk8Edos9mE
6fmCtIfo4xEbYS9rgXJXledQYLNuBDtpEQ5827U9Sy5OYNKR19pdPKByvm9+ghjQ
HE5gjG/yvubHI/5j9RziPytNhvb17o4JLgUrI0bJJVWE0CbHMhPPh0HnGSAJgoQU
64PWnTcEcbUU4O0mywNSQGfIe0bePirdf7+B3g+Tcpdv7ZYw95M+oKfX+FTfWdHn
we7RHM6vrJJNw84rlRrbcKZzvOSUz7lVmc62HjnGZI2WAorM1gzhKO3g3GJRiIgb
YMShx3WBf/5oD3UyRhlyD8UCFnP1JAUh6NRzSmLsYhqCGKq7VxDlyr2onv6BrdF0
K0fqcb7WmefmFNyQzLKRwWZtNQ0pxXYSLOs7P3WbTnlCR2xSdq/MObfHBhoHivqR
MqW9HWb/vESL0KoCoqU17CCMyjlVYw49W5RxZv+DqTpyQ183e3APyMUq1YUH/3dl
CEmH7+lEhf80cEGpMcwYDa5fjTgnHvDy80/MkGHNpOsDKdsI8HawDSCpA/hU55Za
Vkgc8GJ7ofle/L3iabv3SkwIjS8PwkyaIsEJzzJXZQGTbgbGbazR7OhOq18bVCwr
MGWoZK4UX5m/IzUokcwNT1lJQcPvt503Rtym3qwHFV+V9RA+790onhuOzzDOUU7Z
3fcn8H7F2s2ZTSFdloGHfVS6T6ETdoUa1sbuzLGtn+kkMcCSm80KuJikK1n12gWm
nTXIzmG1UomexfGTHQduthG9Lk71LBmvXK4IvknB6+DbuzU0g5g7nf7MzyHOGutc
7VghKeUgUGWRGhA2uKlj6V7boDFg/aXaUi/VX9izp2YaHcQDyCYTuNvaBb0znCzJ
pWM6EUJMGF2Vu27d4B89U7zEq6wLQjTuWkMUOsC2KPsEbH6cDu+6ucK8YLvzI1cZ
a1a7UIpRQ7QTk4JN1j+QShHzGUN9L+KGu5Z8YY0Wygmza2lTTFNbGfCmZqPOnGkr
3W9fvvaHlmj5IN05z05K8gd5w8ssi/vdnrPE4/5xkGwDteV9UuBhMry5ZPKVUBsg
G7d8tAfm3rG5D2PwGiW9kuk+YNF7J0nWAIwCI0zcyNXJ0d1wt7OOTl4kQ+zmLRxI
SDZduUoPm9RYnngusUKAjRlOlKubR1E5RxuaJqgVJtOTXdXqLo7ZRVr1KU5Lwxj1
8W4VZj3V27PSlI1VVcThShHQsWSrYH/dHKlRk4evKA6X4dxx/jSH+rvu3RbP7KSl
A7Y/KZlz8XSbgO/R15grilKb0zJsqAQJg5EPNlvLbARWwG+tkMtOyDDc0UXMoMLb
a0g01ZBeGvST62iHkX6Q/5c3ACfCFisQ4a5SJwxpiqi3IQIhp56tzBHWZes9Yd2u
JMivnqO/fRIFO2bXwrtG0kyb7LhCmlFlATJjif5kWe7yZnNP0bgPa+4Xep6v497C
aVZv+usy+rhDM8XaHhxgRdD0TGi541EK9hjTLJAA1fLBJUJ8+sEQqgyGGlYt6aOj
LcOyVY6Tv+2ukJm/iygF5Dciu8n6YGt6/A1Ed24DJHGAatUd1yc3y5kchSVQDAUC
P7zhdO2Olh55PT0dtOlie0ZSYZW798QgZWjptVSb3hrpHHXzqLEPaE8LhebVLbVj
rF4KQrSR/5LRevvEBzZfbmPJOE0oVzhxcLMTY+znjRA0oiSgekCcldVpeoARRuCd
+H5D1xSJPywqPGtAld0gwb5cDmv/SmzQeOfrnP4q5SkpG+6ks5PxIuuOrmf+fDeJ
B3pe3Tmfi0pXUK/MH59OpTIKNidJ66EAWeOSJ3ehsCqaue+QFKTBWU3fLDDWaeeY
kczshyMuCV2TWBebGXMf9Oc73ThBldmyVYFSeotLumwhc7Y5PWCjdyBnUVy/t3mr
6Jcgo3R2TNsm9DuUOcQjF8J12DQ5lgq14k0lnaV9ARQgVeQPxcieMP3SE4Uzwh08
Ob4VVM6iC8nYpHspn0ZHX3WKo9/cDMNUh/JZc+73vqrxBR+etjgv5ZKDZ/5f7AME
KXXTRGIHbTZksZe+jjbxYTt1PSph7XKbG49K0/LfjCo4r2004u/SZ0Zb+yxj28QW
AWa9QOHWxAKDYU8Dq19JPXbzMNMPWmclpmatZ+Jrjn9Gzzv4n9jDxSyiiifhTk6j
PxxhXsPoiGJQ6xB3HINRT0sXbVM7FGrmyhqyIBlXI8e5NZ7BXwI2qkXPjX03ClOS
jn5HNaGtSqsmZfCk9Wm0TBghFkgfQ07wBLYC4k25L6ixJISY5F8JwNm9OGawebiQ
3XWuqOsvG8tr46hjtcj5q4UOvgh85+lpF3Yow2Yl5gPePj2VzgGUWYjn/E4HtjBF
4fn5Yo/NCeUdPC/xuRfuSraaLBMaXbc08wCo9lhEfOuedT4VQZlJeM0GUXD301ia
fQBosdikNngs8QBiAXIdoJn/+43iyHnPYVQ9chyv3r7a9cCJ7Mb5ny2GmrEzNRIe
JXHwnF+rMWclm9HbVIbx4svThjiln+abipWFNGBzTmZObD1P7UTh4YkqqQTv4NK5
T0sOjdzHT/HB2fEt+8NkFk53WIFdFj/cjySf1D794gFx9rwifh7Ag73SCfTfTVML
1MrattQ59nkn/j05L6KhLEGidLhKuB1TTajEh6mkGENz9z+hoUMDHBHsluWMfhtz
8kROxPM9qtEPAg9xdCTq7ADZz5PNIDegIkzZJUHzoVFNRu3H8HnUd8W/msmwESai
/ywgDoxuvLcbQgMcCpmasM3V9lHR2e/hSO3PcCycEnqQzCPXuG2jJZcX/CQ8OJ3u
rCMiosjRA0QOZvCh09/uC7qBCQBdzlH0R3bUSs0U1bQKomvVLWFHF/rc2bLwsONJ
Q6U77oypQ4kPUwR6hg0hBMtmaNbc02SDTxpQLcQ=
=l99U
-----END PGP MESSAGE-----
