-----BEGIN PGP MESSAGE-----

hF4D2lMrnThqI98SAQdAGu+dU4zBywW8kmjlqSseC16O3aBa0XTVlvv81C8Malww
JQ8G9JsLLDAAKUz8K63q/QCZTYLWNgxWQJzOIOPYVVD3ZAZi4EKo/iCAUG0jHPC0
0usBTF3LKu790d9VP9H9U/scXxK3Dv/GttrkWhfkS2VxBAgJDtvzv1CP88bt/xo2
ekCVORFQ5NiRhVRjDYGagxcez0K1RYydrvQPJYgQS1qO1EI3O4/NvWss5E19ETJG
qDV1ZMRUjYAuOlWb3LCpwp+9hXh2CzB3cdy69958v4bgbTjSJQNUpbVf5ssQEjC+
7qsPNbZLQIdFodrscqSArA8CsDYZ8ZbVcgWh68wC/cE81kaAi51V5J3IXXLOUH/d
xlrUcTu30oVGo6LtN2oduzz3o++L0LFmnq6kLedJVFyDFWi4vZn59YAgc/StDssV
qgOlxOt/Y+V3hZ757t85Q69zhNRIhyosTVRV9DnH28rtsJxL4SItFmplbUvxDaHi
3Rgy+jChQ27LBY/q8RIy+CrDPqn8u/pH6W6+1vSo0wvbV8N4CGeBFfT1d8hk2Xeq
aLgP2jlb4VZyD1QeHRAArsM4Vzw0dzuI2CeDZnUIMOs9uOc/KKjQiKiuCPI+wgi+
+PBG3CX8Q2oDXt8xy5VusKCzrftWVKCQh7Cbl+yJmp1npFZBwlQDxYUlnfPVGbnE
LbAdVF1B7gRTWjElV+AasGqV/D9YFG8B/1LyJ53kE4+5lW4zcoL5MP1C/MF/qtaz
U5wFT/PoLTH3Hcd+XV6467QfCBDh4hffsBDySPB/AJviXXb/GJJ5BMzxWH743QRK
+p5LNKVGnaCgumegs3G8Lfyu+NyFtFVwRz+xvFFfIp1HJUKQO1wxa58iWEIna78J
h044rPtALQyYpyAjeNMguY7v93dzdaC8KOSEcVRfc5TzYKrk8mrSw6Nbte6eQxpM
s1fi1JTjV7FcqiqL1H65s33WbDAsNnMXnw/FukJBurmlCZWoHWxA2IYDNgPFZXAC
YoIoFaHeKHpbqf6hOYxSvid0ba4SsE/DAuY+MpPV494SHwJjNjCHEpAY50P3rk7W
d4QXrGMzGuQUJqVm+V4ilfatl+EYuLUzVhEcBECpT+NqvFdiwbEP+2JBfAZBkV24
98/WeWlMkrqdAxx3Pc3pAkl5xV59HiTHvlaY4fEdmsF6pYqHuIvo+F9uKMDDckDG
EUCejtUHsk/aashOjKAT6B5qz1nsQRTLwWHG7wQqkOXsahntNhqxfUBtcK55wMzQ
KLb/Xu0xAd6hlPE8Rk6/LWP0H6KG3iG/CAN2Fic3zLCfv45Z5bwa8HX0cKic6jD4
zDGJxJXJE/YCUec28MSQTHaC8mUzla2RF9ZRQ2xRPN6ZE5/iLMTd0lWJr3sRZRip
o+YggkTL0vP0P/tHuxUs0wD3hrb1TELaqaAv7WyoIabR09GdfePJHBbZ8dabW9C/
jrjpQqt+BMKf9S291H+mIax5ChInj1pmUCn2+pFkyll7/MDTBSz+RUAJWFrcNxxG
PHmXfR6YzqDO5qzIoia4pRUOFBBvED40WpdDhUeoQCK+koyw+HJYyOyafTVOZfUv
xXOpM9Hc00cSMRE7TOciLvLKjstFlW1K2/nxkbD6OuxnyDGQl0l17kdpGEXUpMAZ
fpUGyG6AC+NBUEs8QoMCFxaNyWiYyj9TREUOfmXsRRfn4fN3bEyvMP6KQN+THaKS
5Y884e+bMA8xL5zy7JQzk22rxb46ElCAc4Fw8t6ULCCO1r0iX/NAxmMNha5myxNN
PMU5zZIQ1UIDJCSaSRktCkCWIy7rIqPVqbcNC5LnTfdfTKxuOA7S3A80qSGubT9Z
RZ3kEK8wY60HJdXr1TKnwHs5AZ0A0HVXEHFQYIUYObglfyPB6t7j+iGgs/2brh2X
gOOYUsw+KRsH8a97pkEwtxWGxYtfIZvFhyMBNzASZFQB4Y3mU+975RkLhXeFNa9u
QFmYOLqWM/9acj+GVZc0pvUV+P6G7+XvXjVLQ22Zltkd0KB81hApX7JDEiopUSDY
/r/Xt7nP42lZMGUNB71qeneIsLMokzhUPegQhfNDPx0LmUJQ0Haby3WhKa8uA/LU
49nL8OYzSykJvxmu8MWtpmyzouiniyMCBM12jnpsTFfNOGFse9KbZQoFtdeLOM9o
coCsiMOVxPDG8JIo4Ypqsega95S0YiCTXEeabvcvVZ4o0HX+Dlf+YGzkSzvLRxgK
6WfLG7S1DrUVxZ+Oi/XN1eg4gE1xLuEofxWny77V4nmD8N4RNA/dScGBNKArnRiu
Pj2MCvg9A9JHy4oA+wNhViSA9Wt9kd+q10Zl2sJvdvFhGy/XsV9x8KqUjwz1bJM6
K5k06iAwF6fqxI8li43wwcM+k5Oq0OcE21YssauZyu6ApshI/POC3kdIREQ9R4oY
4VAVhfapLW9XERcuUem4ActI0Ck7RxOIYEby9RxYbfjpue/Nfb6HeN3g0CmgNlUB
PC+ZKX+usI2wb5OPcn87ltq9HYVbBbwGiPXhIYqLIey7n/4Bwa/Do9PPbz4576cE
DTGelWqwd2mkAOaHEsRtXTDBo2vjk7Qqpp1DjNLIvjgWvFNKdEcd2Ballvcxju9x
5EXcy6JDIanR2hwb/MC9DMJy5beukLz8CFF2vlMongK8FidOp8R7nsAFlFpgxA4T
H9LFIBTieHc7WWbpetIfbadJkm4CthBHVbVfnC47tiAUd1rjUS6vPsrupTHbsG1l
g4vEyYovi/ej9o1iBiUYuO1PH0AoOhbCAERkw+6PWGINXgkd3nTkOlFa3p3BrN20
RRjeN/J1ins5tPjL8SqcO7vMGR8XCsEuRTLbdfgoz4N0MMEC4WCw4R0FxbnM4hPQ
dKDs5puqgFSlj/rY0JpGtj04uRqFbkSTw42bGEgtRxIsewQ7bENHtyDK494mwof9
LwFu/2rYInwCpYazR4knSgNS9QpvcZFWTqcI4bhSGopJ7IDPxmJhG/ReIPSLQgEi
tB/eINxr0aMsx0aaY4go29yRB4TZPOB5EN/WNN4ECWxVWKeAMp+O1d2OjEXsL7el
n159ljE7Uf94Tnq4eP6y21PxpPCnqEKJpjx4qI15MTntCqJpmdjtMTZn/owQbJKN
jKf7WrsGobv21JE9NKmze1I5IPD5QHFYLKCCSevjhL7B18lOfqHVv7G02gm99NdC
xz0YDlvJKF9KQ40rytFYRfye3Bs+Sqf7c6UF1D1+nbtkCV619EaNwi/gjpttECyv
IVkw/cTdHMwPhYBQ3iXD/D1zBk1gnjrEuCkUw95GhKe1cnOokVzy0i92xloLB6Cl
j0ysVVYcDqcPECQDaHS/KaRPloMmTu6r58CRybaNIaTydfu+Qgf/s3xIJvyqD6l+
hd6cZL4kmvUa89Wad8+xLFtUWOwFQA5DchRjXirNU7SYqioitBvhqk95tR+jjRbe
8HvBwEWz
=roGk
-----END PGP MESSAGE-----
