-----BEGIN PGP MESSAGE-----

hF4DCCTCeQi9jLwSAQdANI/rOIBqR31SEsMcuoCnukvljezOCQrc0LFXNi2wnBsw
LAxInsXf08o+UAF5/fs2+rGsC8QSJJWYqZkTBWIRKQzFmchU1vszKF1+Cv0FMhH/
0uoBRCNvgtqIqP91zNQU5xVQrT31vIIWaoMw/p7qjZTlIrdnH0wz7x1qZRQUNx7Z
KawnHqzchCpR7s0+tc3vcJ9bMOnb61Rbw0Hay+EqSv/5uyKeBGteoaJyKqQeb7E8
YJPvgZ+09y58UvDRpxzO3TncrkxS4PJq1E0kLAYd5REVuH8qELk7DHS7/tKek8wc
JPmwJ8E+To+Z0/HMrCuRyO9WHsL6xF3fkR0RPYazz7xzItceCkJXNjCRpZS1Mid9
n4cww/0MwzxsaJpdrAie2qRCa6dVuYwAq9ZJJ/ZP+9JFUWMybBxbbmyYWtFjQL9F
CWAXNpyeGqwCXOGmG719cavZqJfvPVf8L2Rfe1JkkAJVRBh7n/YITNo9FRcxFQjj
EK7c3lm6BwNCOrFhc9Sby2yeAR2sbb2yAxrIiA68uOUPQjDfoMZxR6Ynyaa6exV3
eJN7qjAqmFctTorHkVmoYxMuVAvP1tlR5rjBwhdB6+nhxweUlkiY8wkVYDngbjkR
9sI0BwOT/JBJj7DR/Df/EDLrz13MwkZyWbgRIBKCke27fU47+ntue/TPKSN1RrP2
rasId0ETYD+sYXLIx6eTnCnH9fyGaWIFhVUCsaoQz52hD+wI3jRmGZMXCD9pZu3J
fp7xR08GdFZwC2v8YEZhNALfwjXD5iAHk9u//xFSMWpXoLsQ+pM6AgazAAc7eo1i
9ZN5yOGixIzcYV82XnhbMhuUYXoanje216ZIob8I1o6lanNzo0ycQqPQ25I0v5aC
5LdCasTwcIGsw+cQ97QkARgpGgVsUTmAOKyem1ay9TnRxFxythcyeWKhd8jaaH9A
xP+1bmUpYjnlxZHaxm51iCRCmNj10uKoLFnX0s6eC34+x+5pBSDuyOQRp6cw/y4m
46yR0vcOIH5G9wThyphg8mmU6mZe4Zd6lw6YO6BCulCwZyCE33HE9T3TR46jYiD2
BdAZtPIQTnk1dLFD6S/I9wkE/yKNswUJqhHifINN7scX7xYSNSAZTgXeR8h43S/g
4eV/FPUnuppr8Yn5l34CtK0AFiKscFOg9dHD2RiioM3ktK9KVRmWa4+pOqjOQpjx
DmlxpA8orERf4Z8WbnazvoahVf4DDZlq/drVdCGPBL9UzdKQht8wVnAQh293wino
3DObBfp0cVdT04sorp51SpAAGzrP1vE05Ofu7hygGL+xqwJGrwHmF7KwQJmgrnHY
gkTwSU9pKh5qqxHJhEwFrBnMHRKrKjPuZjTYmUKiXFTSvjcWm4LkUS0a15sMhKjD
lp199ONPOW94WcFbUB5bO2yQIW3xska3rhgYBmY3PDiGCEjM2+rfbnMYiD5jnq/M
kSZQ/TOP3kYeKbTNV5uQFI9v6tHJ45eUnKi0YL5cdxUNWCA5NE5ZwIuniXfRuc2Y
SmWJ317yEqjwcw8yRp/M7H+/+7gGkO5Ke5MXqQXKEkxIyYOLRv3leLUtlTlp9xc1
3tTJJk1bLjERuJ8qDf/oUVEmu88tTI+3Xn6Dckaw+LVb8JpQqZV9VPLbUQ5OvfZd
2Sd+IHahLdn7XiTpfp/FLFNFDyoLB/bWxhn3r6nOOSML9SeL46M2OJBjn7EgHLDw
ifD5G+Vgzj2rrrrPt+I3URxPjwpYVCeKVovNEi95EHEBKRsZgrnGeuDJVOcOUQGK
NtBkfvj/pc/iH4c5t8dfSRVJaCvwlHp3GY9lgqRi1FJU6Pk2STlERviwwxm0ZQZb
aiPYqijculXB4urJs/NcQCP47mdxG9/a6Li2SoSwA4PceVf9GQaxSQEGVCiae6EI
mC3M+2vl5UF41iCXlSis/d6Ul8CgCGwTNI51Vi9sxdwFBVJP46a7X/2PYzv+QphR
01Zx5CHlJlgJO1KKvfVbH1riWlsaeWOheEto6+qUrda46ND/HToLluVn5mhCrSYG
61TOX1lE5P8VeRmre2F9cRMg0PAMfaS7+pnKjZUBYsVnoC62WG/3dNhFKr6qiU6l
fe4gT2oIpZz4zUlBIHnrOX9qxahWxmXdAHQ2JE02IMr5Cs9CG5fUZxjoHHstDCrH
46GwHoCFlNMe+jyww+1iQLO9rLI1a8fdA28o/5MgZXBhmg/vb6S8Ksv6p7u71oT5
8t8MFmoXH21Vu2fRuCvQgIPsxuOhWpB7vI6iZyXBbdssa1jMKv7LGv7SHbaqvkWz
t47wjsdpJbIH+OyI8FUHHW0R3AKfgyf4XYUaWSUcf2MtIHOkAcFJ0151p2i1onuc
e9kUIOVVoN9QIY/cC7W89xn6lPZ94peWuxLlSQPW1SoAHGDSUKsFYCg4Mlkq4v1t
oMZhB1Zr2eV/hwcB2xx0h93lBMBTmPls07kCWYaKbgOFwbMJxG2s73809QKUCc8C
7ZMeaF8V365+a5j65d1jrBBay/fsGUF6HeDxpmrWxyIPGueGmiXDwBqm7rPxQD+m
O3VWjC5SVqVdQhCdNLQGYYL4DTcBDg2z0jPghX+UQBaP3zk0fatFYG3JcAO7OqYk
Ojg4GSWsjAf7rPpCI9oCbceGf8+UvbKsVYv7/sUkQ8qYikDTBeBKlu1CeHBE3E5K
gzPAGWo91l+HE/rz4sxMLpF8El6M27in8Cc7MpcJXrM9OEOGg8frpZ/UVHQjP2Hi
1It70Nhu3RSEph9FBM2AMqR3SvYag/zR2S0blvSudUHUZKMsW7hrNa5qK7YJWPSc
5ZJ1xWf5OY+5hMGBMAY+l4BSPY0S2B3Q1CeotMACZm99vCMm/ZQ84sSsWGT1uBFH
cEZDTuZ+O4KWkN5Gu2zirjWbkwjS7vwczAs=
=rckI
-----END PGP MESSAGE-----
